flaticon/music/trumpet.svg

<svg xmlns="http://www.w3.org/2000/svg" width="32" height="32" viewBox="0 0 24 24">
    <path d="M 23.800781 6.734375 C 22.40625 4.335938 19.816406 1.886719 16.859375 0.179688 C 16.644531 -0.00390625 16.347656 -0.0507812 16.085938 0.0585938 C 15.808594 0.175781 15.632812 0.445312 15.636719 0.742188 L 15.636719 3.761719 C 15.636719 3.90625 15.640625 4.050781 15.640625 4.195312 C 15.660156 5.183594 15.675781 6.035156 15.0625 6.652344 L 12.492188 9.257812 L 12.027344 8.792969 C 12.03125 8.78125 12.035156 8.773438 12.035156 8.761719 L 12.035156 7.960938 C 12.035156 7.855469 11.992188 7.753906 11.917969 7.675781 L 11.519531 7.277344 C 11.445312 7.203125 11.34375 7.160156 11.234375 7.160156 L 10.4375 7.160156 C 10.328125 7.160156 10.226562 7.203125 10.152344 7.277344 L 9.753906 7.675781 C 9.679688 7.753906 9.636719 7.855469 9.636719 7.960938 L 9.636719 8.761719 L 8.835938 8.761719 C 8.730469 8.761719 8.628906 8.800781 8.554688 8.878906 L 8.152344 9.277344 C 8.078125 9.351562 8.035156 9.453125 8.035156 9.558594 L 8.035156 10.359375 L 7.234375 10.359375 C 7.128906 10.359375 7.027344 10.402344 6.953125 10.476562 L 6.554688 10.878906 C 6.476562 10.953125 6.4375 11.054688 6.4375 11.160156 L 6.4375 11.960938 C 6.4375 12.066406 6.476562 12.167969 6.554688 12.242188 L 6.953125 12.644531 C 7.027344 12.71875 7.128906 12.761719 7.234375 12.761719 L 8.035156 12.761719 C 8.046875 12.761719 8.058594 12.753906 8.070312 12.753906 L 8.5625 13.242188 L 8.023438 13.789062 C 7.277344 14.546875 4.777344 17.101562 4.027344 18.148438 C 3.308594 19.152344 2.503906 20.105469 1.632812 20.976562 L 1.570312 21.035156 C 1.1875 20.789062 0.644531 20.832031 0.316406 21.160156 C -0.0742188 21.550781 -0.0742188 22.1875 0.316406 22.574219 L 1.445312 23.707031 C 1.636719 23.894531 1.886719 24 2.152344 24 C 2.421875 24 2.671875 23.894531 2.859375 23.707031 C 3.050781 23.519531 3.152344 23.265625 3.152344 23 C 3.152344 22.800781 3.09375 22.609375 2.988281 22.449219 L 3.09375 22.339844 C 3.933594 21.5 4.847656 20.722656 5.8125 20.023438 C 6.660156 19.410156 8.488281 17.769531 9.636719 16.675781 C 9.617188 17.421875 9.886719 18.175781 10.453125 18.742188 C 11 19.289062 11.714844 19.5625 12.433594 19.5625 C 13.070312 19.5625 13.707031 19.34375 14.226562 18.910156 L 14.242188 18.925781 L 18.199219 14.964844 L 18.195312 14.960938 L 18.371094 14.78125 C 18.898438 14.257812 19.1875 13.554688 19.1875 12.804688 C 19.1875 12.054688 18.898438 11.351562 18.371094 10.824219 C 17.84375 10.296875 17.140625 10.007812 16.390625 10.007812 C 16.34375 10.007812 16.292969 10.011719 16.242188 10.011719 L 17.332031 8.910156 C 17.96875 8.265625 18.925781 7.960938 20.21875 7.960938 L 23.230469 7.960938 C 23.234375 7.960938 23.238281 7.960938 23.238281 7.960938 C 23.539062 7.960938 23.804688 7.785156 23.917969 7.507812 C 24.03125 7.246094 23.980469 6.949219 23.800781 6.734375 Z M 10.4375 8.125 L 10.601562 7.960938 L 11.070312 7.960938 L 11.234375 8.125 L 11.234375 8.59375 L 11.070312 8.761719 L 10.601562 8.761719 L 10.4375 8.59375 Z M 11.234375 9.558594 C 11.34375 9.558594 11.445312 9.519531 11.519531 9.441406 L 11.53125 9.429688 L 11.929688 9.828125 L 10.808594 10.964844 L 10.386719 10.542969 C 10.414062 10.488281 10.4375 10.425781 10.4375 10.359375 L 10.4375 9.558594 Z M 11.40625 14.960938 L 12.539062 13.828125 L 15.367188 16.65625 L 14.234375 17.789062 Z M 10.820312 14.371094 L 9.6875 13.238281 L 10.8125 12.101562 L 11.941406 13.234375 Z M 15.933594 16.089844 L 13.105469 13.261719 L 14.234375 12.132812 L 17.0625 14.960938 Z M 12.503906 12.664062 L 11.371094 11.53125 L 12.496094 10.390625 L 13.628906 11.523438 Z M 8.835938 9.726562 L 9 9.558594 L 9.46875 9.558594 L 9.636719 9.726562 L 9.636719 10.195312 L 9.46875 10.359375 L 9 10.359375 L 8.835938 10.195312 Z M 7.234375 11.792969 L 7.234375 11.324219 L 7.402344 11.160156 L 7.871094 11.160156 L 8.035156 11.324219 L 8.035156 11.792969 L 7.871094 11.960938 L 7.402344 11.960938 Z M 8.703125 12.257812 L 8.71875 12.242188 C 8.792969 12.167969 8.835938 12.066406 8.835938 11.960938 L 8.835938 11.160156 L 9.636719 11.160156 C 9.703125 11.160156 9.761719 11.140625 9.820312 11.109375 L 10.246094 11.535156 L 9.121094 12.675781 Z M 2.292969 23.140625 C 2.242188 23.191406 2.183594 23.199219 2.152344 23.199219 C 2.121094 23.199219 2.0625 23.191406 2.011719 23.140625 L 0.878906 22.011719 C 0.800781 21.933594 0.800781 21.804688 0.878906 21.726562 C 0.929688 21.675781 0.988281 21.667969 1.019531 21.667969 C 1.050781 21.667969 1.113281 21.675781 1.164062 21.726562 L 2.292969 22.859375 C 2.34375 22.910156 2.351562 22.96875 2.351562 23 C 2.351562 23.03125 2.34375 23.089844 2.292969 23.140625 Z M 5.34375 19.375 C 4.347656 20.097656 3.398438 20.90625 2.53125 21.773438 L 2.4375 21.867188 L 2.152344 21.585938 L 2.199219 21.539062 C 3.101562 20.636719 3.933594 19.652344 4.691406 18.597656 C 5.394531 17.613281 7.855469 15.097656 8.59375 14.347656 L 9.125 13.808594 L 10.257812 14.941406 L 9.78125 15.421875 C 8.941406 16.273438 6.355469 18.644531 5.34375 19.375 Z M 11.019531 18.175781 C 10.300781 17.457031 10.253906 16.328125 10.859375 15.542969 L 13.652344 18.335938 C 12.867188 18.941406 11.738281 18.894531 11.019531 18.175781 Z M 17.808594 11.390625 C 18.183594 11.765625 18.390625 12.265625 18.390625 12.804688 C 18.390625 13.339844 18.183594 13.839844 17.808594 14.21875 L 17.628906 14.394531 L 14.800781 11.566406 L 14.976562 11.390625 C 15.355469 11.011719 15.855469 10.804688 16.394531 10.804688 C 16.929688 10.804688 17.429688 11.011719 17.808594 11.390625 Z M 20.21875 7.160156 C 20.207031 7.160156 20.191406 7.160156 20.179688 7.160156 C 18.671875 7.160156 17.550781 7.546875 16.761719 8.347656 L 14.191406 10.953125 L 13.058594 9.824219 L 15.632812 7.214844 C 16.480469 6.359375 16.460938 5.25 16.441406 4.183594 C 16.4375 4.042969 16.4375 3.902344 16.433594 3.761719 L 16.433594 0.859375 C 19.296875 2.507812 21.792969 4.859375 23.121094 7.160156 Z M 20.21875 7.160156"/>
</svg>

<svg xmlns="http://www.w3.org/2000/svg" width="32" height="32" viewBox="0 0 24 24">
    <path d="M23.8 6.734C22.407 4.336 19.817 1.887 16.86.18a.744.744 0 0 0-.774-.121.73.73 0 0 0-.45.683v3.02c0 .144.005.289.005.433.02.989.035 1.84-.579 2.457l-2.57 2.606-.465-.465c.004-.012.008-.02.008-.031V7.96a.416.416 0 0 0-.117-.285l-.398-.399a.402.402 0 0 0-.286-.117h-.796c-.11 0-.211.043-.286.117l-.398.399a.416.416 0 0 0-.117.285v.8h-.801a.384.384 0 0 0-.281.118l-.403.398a.4.4 0 0 0-.117.282v.8h-.8a.4.4 0 0 0-.282.118l-.398.402a.384.384 0 0 0-.117.281v.8c0 .106.039.208.117.282l.398.403a.4.4 0 0 0 .281.117h.801c.012 0 .024-.008.035-.008l.492.488-.539.547c-.746.758-3.246 3.313-3.996 4.36a22.688 22.688 0 0 1-2.394 2.828l-.063.058a1.026 1.026 0 0 0-1.254.125 1 1 0 0 0 0 1.414l1.13 1.133c.19.188.44.293.706.293.27 0 .52-.105.707-.293a1.002 1.002 0 0 0 .129-1.258l.106-.11c.84-.839 1.754-1.616 2.719-2.316.847-.613 2.675-2.253 3.824-3.347-.02.746.25 1.5.816 2.066a2.795 2.795 0 0 0 3.773.168l.016.016 3.957-3.961-.004-.004.176-.18a2.764 2.764 0 0 0 .817-1.976c0-.75-.29-1.453-.817-1.98a2.78 2.78 0 0 0-1.98-.817c-.047 0-.098.004-.149.004l1.09-1.102c.637-.644 1.594-.95 2.887-.95h3.019c.301 0 .567-.175.68-.452a.743.743 0 0 0-.117-.774zM10.438 8.125l.165-.164h.468l.164.164v.469l-.164.168h-.468l-.165-.168zm.797 1.434c.11 0 .211-.04.286-.118l.011-.011.399.398-1.121 1.137-.422-.422a.416.416 0 0 0 .05-.184v-.8zm.172 5.402l1.133-1.133 2.828 2.828-1.133 1.133zm-.586-.59l-1.133-1.133 1.126-1.136 1.128 1.132zm5.114 1.719l-2.829-2.828 1.13-1.13 2.828 2.829zm-3.43-3.426l-1.133-1.133 1.125-1.14 1.133 1.132zM8.836 9.727L9 9.559h.469l.168.168v.468l-.168.164H9l-.164-.164zm-1.602 2.066v-.469l.168-.164h.47l.163.164v.469l-.164.168h-.469zm1.47.465l.015-.016a.4.4 0 0 0 .117-.281v-.8h.8c.067 0 .126-.02.184-.052l.426.426-1.125 1.14zM2.292 23.14a.198.198 0 0 1-.281 0L.879 22.01a.203.203 0 0 1 0-.284c.05-.051.11-.059.14-.059.032 0 .094.008.145.059l1.129 1.132a.198.198 0 0 1 0 .282zm3.05-3.766a23.558 23.558 0 0 0-2.812 2.398l-.094.094-.285-.281.047-.047a23.771 23.771 0 0 0 2.492-2.941c.704-.985 3.164-3.5 3.903-4.25l.531-.54 1.133 1.133-.477.48c-.84.852-3.426 3.224-4.437 3.954zm5.677-1.2a1.998 1.998 0 0 1-.16-2.632l2.792 2.793a1.998 1.998 0 0 1-2.632-.16zm6.789-6.784c.375.375.582.875.582 1.414 0 .535-.207 1.035-.582 1.414l-.18.176-2.828-2.829.176-.175a1.985 1.985 0 0 1 1.418-.586c.535 0 1.035.207 1.414.586zm2.41-4.23h-.04c-1.507 0-2.628.386-3.417 1.187l-2.57 2.605-1.133-1.129 2.574-2.61c.847-.855.828-1.964.808-3.03-.003-.141-.003-.282-.007-.422V.859c2.863 1.649 5.359 4 6.687 6.301zm0 0"/>
</svg>
